src/assets/img/action_and_leasing-list/icon7.svg

<svg width="50" height="50" viewBox="0 0 50 50" fill="none" xmlns="http://www.w3.org/2000/svg">
<path d="M39.8438 8.59375V10.2695C38.9414 10.5555 38.2812 11.3906 38.2812 12.3859C38.2812 13.2352 38.7531 13.9992 39.5141 14.3805L41.0375 15.1422C41.2648 15.2555 41.4062 15.4844 41.4062 15.7391C41.4062 16.1062 41.107 16.4062 40.7391 16.4062H40.5109C40.143 16.4062 39.8438 16.1062 39.8438 15.7391V14.8438H38.2812V15.7391C38.2812 16.7352 38.9414 17.5703 39.8438 17.8555V19.5312H41.4062V17.8555C42.3086 17.5695 42.9688 16.7344 42.9688 15.7391C42.9688 14.8898 42.4969 14.1258 41.7359 13.7445L40.2125 12.9828C39.9852 12.8695 39.8438 12.6406 39.8438 12.3859C39.8438 12.0188 40.143 11.7188 40.5109 11.7188H40.7391C41.107 11.7188 41.4062 12.0188 41.4062 12.3859V12.5H42.9688V12.3859C42.9688 11.3898 42.3086 10.5547 41.4062 10.2695V8.59375H39.8438Z" fill="#333333"/>
<path d="M45.1562 43.4383C44.0422 42.6023 42.757 42.0094 41.4062 41.6867V22.6164C45.7797 22.2203 49.2188 18.5375 49.2188 14.0625C49.2188 9.5875 45.7797 5.90469 41.4062 5.50859V0.78125H3.90625V41.4852C2.12578 41.8484 0.78125 43.4266 0.78125 45.3125C0.78125 47.4664 2.53359 49.2188 4.6875 49.2188H39.0625C41.2461 49.2188 43.4102 48.4969 45.1562 47.1875C45.5273 46.9094 45.7891 46.5219 45.9422 46.0938H49.2188V44.5312H45.9422C45.7891 44.1023 45.5273 43.7156 45.1562 43.4383ZM47.6562 14.0625C47.6562 17.9398 44.5016 21.0938 40.625 21.0938C36.7484 21.0938 33.5938 17.9398 33.5938 14.0625C33.5938 10.1852 36.7484 7.03125 40.625 7.03125C44.5016 7.03125 47.6562 10.1852 47.6562 14.0625ZM39.8438 2.34375V5.50859C35.4703 5.90469 32.0312 9.5875 32.0312 14.0625C32.0312 18.5375 35.4703 22.2203 39.8438 22.6164V41.4383C39.5844 41.418 39.3234 41.4062 39.0625 41.4062H30.0344C30.3031 40.9445 30.4688 40.4156 30.4688 39.8438C30.4688 38.1203 29.0672 36.7188 27.3438 36.7188H14.8438C13.1203 36.7188 11.7188 38.1203 11.7188 39.8438V41.4062H5.46875V2.34375H39.8438ZM27.3438 41.4062C26.482 41.4062 25.7812 40.7055 25.7812 39.8438H24.2188C24.2188 40.4156 24.3844 40.9445 24.6531 41.4062H13.2812V39.8438C13.2812 38.982 13.982 38.2812 14.8438 38.2812H27.3438C28.2055 38.2812 28.9062 38.982 28.9062 39.8438C28.9062 40.7055 28.2055 41.4062 27.3438 41.4062ZM36.7188 42.9688V47.6562H14.8438V42.9688H36.7188ZM2.34375 45.3125C2.34375 44.0203 3.39531 42.9688 4.6875 42.9688H13.2812V47.6562H4.6875C3.39531 47.6562 2.34375 46.6047 2.34375 45.3125ZM44.2188 45.9375C42.7414 47.0461 40.9102 47.6562 39.0625 47.6562H38.2812V42.9688H39.0625C40.9102 42.9688 42.7414 43.5789 44.2195 44.6883C44.4148 44.8344 44.5312 45.068 44.5312 45.3125C44.5312 45.557 44.4148 45.7906 44.2188 45.9375Z" fill="#333333"/>
<path d="M27.3438 3.90625H7.03125V14.8438H27.3438V3.90625ZM25.7812 13.2812H8.59375V5.46875H25.7812V13.2812Z" fill="#333333"/>
<path d="M25.7812 22.6562H7.03125V35.1562H25.7812V22.6562ZM24.2188 25.7812H19.5312V24.2188H24.2188V25.7812ZM13.2812 27.3438V33.5938H11.7188V27.3438H13.2812ZM14.8438 27.3438H17.9688V33.5938H14.8438V27.3438ZM14.8438 25.7812V24.2188H17.9688V25.7812H14.8438ZM19.5312 27.3438H21.0938V33.5938H19.5312V27.3438ZM13.2812 24.2188V25.7812H8.59375V24.2188H13.2812ZM8.59375 27.3438H10.1562V33.5938H8.59375V27.3438ZM22.6562 33.5938V27.3438H24.2188V33.5938H22.6562Z" fill="#333333"/>
<path d="M7.03125 16.4062H8.59375V17.9688H7.03125V16.4062Z" fill="#333333"/>
<path d="M10.1562 16.4062H27.3438V17.9688H10.1562V16.4062Z" fill="#333333"/>
<path d="M7.03125 19.5312H27.3438V21.0938H7.03125V19.5312Z" fill="#333333"/>
<path d="M27.3438 24.2188H38.2812V25.7812H27.3438V24.2188Z" fill="#333333"/>
<path d="M27.3438 27.3438H38.2812V28.9062H27.3438V27.3438Z" fill="#333333"/>
<path d="M27.3438 30.4688H28.9062V32.0312H27.3438V30.4688Z" fill="#333333"/>
<path d="M30.4688 30.4688H38.2812V32.0312H30.4688V30.4688Z" fill="#333333"/>
<path d="M27.3438 33.5938H38.2812V35.1562H27.3438V33.5938Z" fill="#333333"/>
</svg>

<svg width="50" height="50" fill="none" xmlns="http://www.w3.org/2000/svg"><path d="M39.844 8.594v1.676a2.226 2.226 0 00-1.563 2.116c0 .85.472 1.613 1.233 1.995l1.523.761a.668.668 0 01-.298 1.264h-.228a.668.668 0 01-.667-.667v-.895H38.28v.895c0 .996.66 1.831 1.563 2.116v1.676h1.562v-1.675a2.226 2.226 0 001.563-2.117 2.22 2.22 0 00-1.233-1.995l-1.523-.761a.668.668 0 01.298-1.264h.228c.368 0 .667.3.667.667v.114h1.563v-.114c0-.996-.66-1.831-1.563-2.116V8.594h-1.562z" fill="#333"/><path d="M45.156 43.438a10.207 10.207 0 00-3.75-1.751v-19.07c4.374-.397 7.813-4.08 7.813-8.555 0-4.474-3.44-8.157-7.813-8.553V.78h-37.5v40.704a3.913 3.913 0 00-3.125 3.828 3.91 3.91 0 003.906 3.906h34.376a10.22 10.22 0 006.093-2.032c.371-.278.633-.665.786-1.093h3.277V44.53h-3.277a2.325 2.325 0 00-.786-1.093zm2.5-29.376a7.04 7.04 0 01-7.031 7.032 7.04 7.04 0 01-7.031-7.032 7.04 7.04 0 017.031-7.03 7.04 7.04 0 017.031 7.03zM39.844 2.345V5.51c-4.374.396-7.813 4.079-7.813 8.553 0 4.476 3.44 8.158 7.813 8.554v18.822c-.26-.02-.52-.032-.782-.032h-9.028c.27-.462.435-.99.435-1.562a3.128 3.128 0 00-3.125-3.125h-12.5a3.128 3.128 0 00-3.125 3.125v1.562h-6.25V2.344h34.375zm-12.5 39.062c-.862 0-1.563-.7-1.563-1.562H24.22c0 .572.165 1.1.434 1.562H13.281v-1.562c0-.862.701-1.563 1.563-1.563h12.5a1.564 1.564 0 010 3.125zm9.375 1.563v4.687H14.844V42.97h21.875zM2.344 45.312a2.347 2.347 0 012.344-2.343h8.593v4.687H4.687a2.347 2.347 0 01-2.343-2.343zm41.875.626a8.644 8.644 0 01-5.157 1.718h-.78V42.97h.78c1.848 0 3.68.61 5.157 1.72a.783.783 0 010 1.248z" fill="#333"/><path d="M27.344 3.906H7.03v10.938h20.313V3.906zm-1.563 9.375H8.594V5.47H25.78v7.812zm0 9.375H7.031v12.5h18.75v-12.5zm-1.562 3.125H19.53V24.22h4.688v1.562zM13.28 27.344v6.25h-1.56v-6.25h1.562zm1.563 0h3.125v6.25h-3.125v-6.25zm0-1.563V24.22h3.125v1.562h-3.125zm4.687 1.563h1.563v6.25H19.53v-6.25zm-6.25-3.125v1.562H8.594V24.22h4.687zm-4.687 3.125h1.562v6.25H8.594v-6.25zm14.062 6.25v-6.25h1.563v6.25h-1.563zM7.031 16.406h1.563v1.563H7.03v-1.563zm3.125 0h17.188v1.563H10.156v-1.563zm-3.125 3.125h20.313v1.563H7.03V19.53zm20.313 4.688H38.28v1.562H27.344V24.22zm0 3.125H38.28v1.562H27.344v-1.562zm0 3.125h1.562v1.562h-1.562V30.47zm3.125 0h7.812v1.562H30.47V30.47zm-3.125 3.125H38.28v1.562H27.344v-1.562z" fill="#333"/></svg>
